X:358
T:Dogs among the Bushes, The
R:reel
H:See also #344 in G.
Z:id:hn-reel-358
M:C|
K:Amix
cA~A2 EA~A2|cA~A2 dfed|1 cA~A2 EA~A2|BG~G2 gedB:|2 cBcd efge|dBGB d2cd||
eaa^g ~a3^g|ea~a2 c'ab=g|eggf ~g3a|bg~g2 egdg|
eaa^g ~a3^g|ea~a2 c'aba|c'aba ~e3f|~g3f gedB||
